X: 1
T: Arme B\"urastand    [G]
O: Alsatian branle
D: Au gré des vents, "étoile du matin"
S: 2017 DEFFA Folk Band collection
R: branle
M: C|
L: 1/8
Q: 1/2=54
K: G
|:\
"G"G3A B2cB | "D7"A2BA "G"G2D2 |\
"G"B3c d2ed | "D7"c2dc "G"B4 :|\
"G"d2ed e2d2 |
"D/F#"d2ed e2d2 |\
"Dm/F"d2ed e2d2 | "C/E"d2ed e2d2 |\
"G/D"d3c "G"B2G2 | "D7"A3B "G"G4 |]
